X:6407
T:Tabhair Domh Do L\`amh
O:england
C:Trad
R:Waltz?
M:3/4
K:G
L:1/4
D |: EGG | G2 D | EGG | G2 D | EGG | GAB | Bed | B2 A/G/ |
A A e/d/ | B B A/G/ | A>B A/G/ | E2 D | E G G | G2 D | E G G |
G2 D | E G G | G A B | A>B A/B/ |  G2 D | E G G | G A B | B e d|
B2 A/G/ | A A e/d/ | B B d/B/ | A2 ((3B/c/d/) | e2 d/B/ | dde  |
g2 ed | eeg | a2 g/e/ | g g d/e/ | g g d/e/ | g g a | b3 |
b b b | b2 a/g/ | a>g a/b/ | a2 g/f/ | e2 g/e/ | d d/e/ g/d/ |
B2 d/B/ | A2 B/A/ | G2 ((3B/c/d/) | =f2 e/d/ | e e g | e2 d/B/ |
d d/e/ g/d/ | B2 d/B/ | A>c B/A/ | G2 D :| EGG | G2D | EGG | G3 ||


